packages/components/src/components/icon/common/ic-advcash-dark.svg

<svg width="128" height="80" viewBox="0 0 128 80" fill="none" xmlns="http://www.w3.org/2000/svg">
<path d="M15.0148 38.9464L16.9248 33.877H4L5.89564 38.9464H15.0148Z" fill="#00AF7E"/>
<path d="M27.9395 38.9464L29.8495 33.877H21.8217L23.7174 38.9464H27.9395Z" fill="#00AF7E"/>
<path d="M19.7683 41.4739L21.6783 46.529H5.89564L4 41.4739H19.7683Z" fill="#00AF7E"/>
<path d="M27.9397 46.529L29.8497 41.4739H24.7372L26.6759 46.529H27.9397Z" fill="#00AF7E"/>
<path d="M23.5739 51.5839H28.6146L23.7606 38.9463L21.8219 33.8769L19.639 28.1899H14.2106L12.0277 33.8769H16.9248L18.8204 38.9463L23.5739 51.5839Z" fill="white"/>
<path d="M10.0888 38.9462H15.0146L14.0668 41.4737H9.11227L10.0888 38.9462Z" fill="white"/>
<path d="M7.17379 46.5287H12.1714L10.2758 51.5838H5.2207L7.17379 46.5287Z" fill="white"/>
<path d="M31.7023 50.5932C31.6161 50.8805 31.4007 51.0528 31.1135 51.0528C30.9268 51.0528 30.7688 50.9954 30.6539 50.8661C30.539 50.7369 30.4816 50.5789 30.4816 50.3778C30.4816 50.1911 30.539 50.0332 30.6683 49.9183C30.7975 49.789 30.9411 49.7316 31.1135 49.7316C31.2571 49.7316 31.3863 49.7747 31.4868 49.8608C31.6017 49.947 31.6735 50.0619 31.7023 50.1911L31.4581 50.2773C31.415 50.0763 31.2858 49.947 31.1135 49.947C30.898 49.947 30.7544 50.1193 30.7544 50.3922C30.7544 50.6507 30.898 50.823 31.1135 50.823C31.3001 50.823 31.415 50.7081 31.4581 50.4927L31.7023 50.5932Z" fill="white"/>
<path fill-rule="evenodd" clip-rule="evenodd" d="M31.0847 51.6416C30.7401 51.6416 30.4385 51.5267 30.1944 51.2826C29.9502 51.0384 29.8353 50.7512 29.8353 50.4066C29.8353 50.0619 29.9502 49.7603 30.1944 49.5305C30.4385 49.2864 30.7257 49.1715 31.0847 49.1715C31.4294 49.1715 31.731 49.2864 31.9607 49.5305C32.2049 49.7747 32.3198 50.0619 32.3198 50.4066C32.3198 50.7512 32.2049 51.0528 31.9607 51.2826C31.731 51.5123 31.4294 51.6416 31.0847 51.6416ZM31.8315 51.1533C32.0326 50.9523 32.1331 50.6938 32.1331 50.3922C32.1331 50.0906 32.0326 49.8465 31.8315 49.6454C31.6304 49.4444 31.3863 49.3438 31.0847 49.3438C30.7975 49.3438 30.539 49.4444 30.338 49.6454C30.1369 49.8465 30.0364 50.105 30.0364 50.3922C30.0364 50.6938 30.1369 50.9379 30.338 51.1533C30.539 51.3544 30.7975 51.4549 31.0847 51.4549C31.372 51.4549 31.6304 51.3544 31.8315 51.1533Z" fill="white"/>
<path fill-rule="evenodd" clip-rule="evenodd" d="M35.4792 51.5549H38.7678L40.2183 47.419H47.2838L48.8492 51.5549H52.4394L45.6323 33.8479H42.0421L35.4792 51.5549ZM46.2211 44.5899H41.2379L43.6649 37.7828L46.2211 44.5899Z" fill="white"/>
<path fill-rule="evenodd" clip-rule="evenodd" d="M61.0273 51.5549V48.137C60.5822 50.4204 59.3471 51.7991 57.0063 51.7991C54.5936 51.7991 52.1954 49.8603 52.1954 45.5951C52.1954 41.4592 54.608 39.5205 57.0063 39.5205C59.3471 39.5205 60.5678 40.8704 61.0273 43.1394V33.8479H64.1006V51.5549H61.0273ZM58.3706 49.6306C59.9072 49.6306 60.9412 48.2088 60.9412 45.5664C60.9412 43.0102 59.9072 41.6028 58.3706 41.6028C56.8339 41.6028 55.6133 43.0245 55.6133 45.5664C55.5989 48.2232 56.8339 49.6306 58.3706 49.6306Z" fill="white"/>
<path d="M70.3332 51.5549H72.4587L77.7004 39.7502H74.7277L71.6544 47.4477L68.6386 39.7502H65.2638L70.3332 51.5549Z" fill="white"/>
<path d="M83.6313 39.5064C86.087 39.5064 88.3704 41.0718 88.9448 43.5275L86.1301 44.5615C85.728 42.393 84.737 41.4882 83.4446 41.4882C81.8649 41.4882 80.8309 42.953 80.8309 45.6242C80.8309 48.482 82.0803 49.7601 83.4733 49.7601C84.9094 49.7601 85.6705 48.6543 86.1444 46.4571L88.9592 47.4911C88.514 50.1048 86.1444 51.785 83.6456 51.785C80.2277 51.785 77.413 49.2575 77.413 45.6242C77.3986 42.0339 80.2133 39.5064 83.6313 39.5064Z" fill="white"/>
<path d="M107.815 44.2742C105.92 43.872 105.331 43.5417 105.331 42.9099C105.331 42.2493 105.891 41.8041 107.025 41.761C108.059 41.761 108.935 42.1918 109.524 43.3263L111.621 42.2636C110.745 40.21 108.878 39.4776 106.896 39.4776C104.512 39.4776 102.573 40.7414 102.573 43.0966C102.573 45.2938 103.866 46.3421 106.609 46.9022C108.504 47.3043 109.093 47.7064 109.093 48.3957C109.093 49.0276 108.591 49.4297 107.341 49.4297C106.02 49.4297 104.929 48.9415 104.34 47.8069L102.243 48.9845C103.119 50.8515 104.814 51.7706 107.269 51.7706C110.558 51.7706 111.851 50.0042 111.851 47.9506C111.851 45.9975 110.831 44.906 107.815 44.2742Z" fill="white"/>
<path d="M116.446 51.5549H113.373V33.8479H116.446V43.6277C116.891 41.014 118.126 39.5205 120.467 39.5205C122.305 39.5205 124.014 40.7699 124.014 43.2256V51.5549H120.941V44.3745C120.941 43.8287 120.769 43.3405 120.467 42.8378C120.166 42.3352 119.663 42.1054 118.974 42.1054C117.078 42.1054 116.446 44.0154 116.446 44.9345V51.5549Z" fill="white"/>
<path fill-rule="evenodd" clip-rule="evenodd" d="M90.223 43.1829L93.0378 44.2169C93.2819 43.3552 93.5548 42.752 93.8707 42.4217C94.201 42.0484 94.8042 41.8617 95.6802 41.8617C96.4126 41.8617 96.9296 42.0053 97.2455 42.3069C97.5615 42.6084 97.7194 43.068 97.7194 43.6999V44.2025C96.628 44.6046 95.6227 44.8918 94.6893 45.0785C93.7558 45.2652 92.9516 45.4806 92.2766 45.7104C91.6017 45.9402 91.0703 46.2848 90.6826 46.7157C90.2948 47.1465 90.1081 47.8071 90.1081 48.6831C90.1081 49.6597 90.4241 50.4208 91.0416 50.9809C91.6591 51.5409 92.4921 51.8138 93.5117 51.8138C93.9425 51.8138 94.3877 51.742 94.8616 51.6128C94.8697 51.6047 94.8823 51.6012 94.8969 51.5971C94.9082 51.5939 94.9208 51.5903 94.9334 51.584C95.6371 51.3686 96.2546 50.9378 96.7285 50.3633L97.7194 49.157V49.7027L97.7051 51.5697H100.793V43.1829C100.793 41.876 100.405 40.9426 99.6294 40.3681C98.854 39.8081 97.5758 39.5208 95.7951 39.5208C95.1201 39.5208 94.4739 39.5926 93.8563 39.7362C93.2388 39.8799 92.6931 40.0953 92.2048 40.3968C91.7166 40.6984 91.3001 41.0862 90.9554 41.5457C90.6108 42.0053 90.3666 42.551 90.223 43.1829ZM93.8707 49.1714C93.5979 48.8985 93.4686 48.5539 93.4686 48.1087C93.4686 47.4337 93.7558 46.888 94.3303 46.4715C94.7657 46.1667 95.523 45.9444 96.5959 45.6295C96.9383 45.529 97.3129 45.419 97.7194 45.2939V47.1896C97.6045 47.5917 97.4322 47.9507 97.2168 48.2523C97.0014 48.5539 96.7716 48.798 96.5131 48.9991C96.269 49.1857 95.9961 49.3294 95.7233 49.4299C95.4504 49.5304 95.2063 49.5735 95.0052 49.5735C94.517 49.5735 94.1436 49.4442 93.8707 49.1714Z" fill="white"/>
</svg>

<svg width="128" height="80" fill="none" xmlns="http://www.w3.org/2000/svg"><path d="m15.015 38.946 1.91-5.069H4l1.896 5.07h9.119ZM27.94 38.946l1.91-5.069h-8.028l1.895 5.07h4.223ZM19.768 41.474l1.91 5.055H5.896L4 41.474h15.768ZM27.94 46.529l1.91-5.055h-5.113l1.939 5.055h1.264Z" fill="#00AF7E"/><path d="M23.574 51.584h5.04l-4.853-12.638-1.94-5.07-2.182-5.686h-5.428l-2.183 5.687h4.897l1.895 5.07 4.754 12.637ZM10.089 38.946h4.926l-.948 2.528H9.112l.977-2.528ZM7.174 46.529h4.997l-1.895 5.055H5.22l1.953-5.055ZM31.702 50.593c-.086.287-.301.46-.589.46a.586.586 0 0 1-.46-.187.7.7 0 0 1-.171-.488c0-.187.057-.345.186-.46a.597.597 0 0 1 .445-.186c.144 0 .273.043.374.129a.56.56 0 0 1 .215.33l-.244.086c-.043-.2-.172-.33-.345-.33-.215 0-.359.172-.359.445 0 .259.144.431.36.431.186 0 .301-.115.344-.33l.244.1Z" fill="#fff"/><path fill-rule="evenodd" clip-rule="evenodd" d="M31.085 51.642c-.345 0-.646-.115-.89-.36a1.181 1.181 0 0 1-.36-.875c0-.345.115-.647.36-.876a1.19 1.19 0 0 1 .89-.36c.344 0 .646.115.876.36.244.244.359.53.359.876 0 .344-.115.646-.36.876-.229.23-.53.359-.875.359Zm.746-.489c.202-.2.302-.46.302-.76 0-.302-.1-.547-.302-.748a1.007 1.007 0 0 0-.746-.301 1.03 1.03 0 0 0-1.049 1.048 1.03 1.03 0 0 0 1.048 1.063c.288 0 .546-.1.747-.302ZM35.48 51.555h3.288l1.45-4.136h7.066l1.565 4.136h3.59l-6.807-17.707h-3.59L35.48 51.555ZM46.22 44.59h-4.983l2.427-6.807 2.556 6.807ZM61.027 51.555v-3.418c-.445 2.283-1.68 3.662-4.02 3.662-2.413 0-4.812-1.939-4.812-6.204 0-4.136 2.413-6.075 4.811-6.075 2.341 0 3.562 1.35 4.021 3.62v-9.292h3.074v17.707h-3.074Zm-2.656-1.924c1.536 0 2.57-1.422 2.57-4.065 0-2.556-1.034-3.963-2.57-3.963-1.537 0-2.758 1.422-2.758 3.963-.014 2.657 1.22 4.065 2.758 4.065Z" fill="#fff"/><path d="M70.333 51.555h2.126L77.7 39.75h-2.972l-3.074 7.698-3.015-7.698h-3.375l5.07 11.805ZM83.631 39.506c2.456 0 4.74 1.566 5.314 4.022l-2.815 1.034c-.402-2.169-1.393-3.074-2.685-3.074-1.58 0-2.614 1.465-2.614 4.136 0 2.858 1.25 4.136 2.642 4.136 1.436 0 2.198-1.106 2.671-3.303l2.815 1.034c-.445 2.614-2.815 4.294-5.313 4.294-3.418 0-6.233-2.527-6.233-6.16-.014-3.591 2.8-6.119 6.218-6.119ZM107.815 44.274c-1.895-.402-2.484-.732-2.484-1.364 0-.66.56-1.106 1.694-1.149 1.034 0 1.91.43 2.499 1.565l2.097-1.062c-.876-2.054-2.743-2.786-4.725-2.786-2.384 0-4.323 1.263-4.323 3.619 0 2.197 1.293 3.245 4.036 3.805 1.895.402 2.484.804 2.484 1.494 0 .632-.502 1.034-1.752 1.034-1.321 0-2.412-.489-3.001-1.623l-2.097 1.177c.876 1.867 2.571 2.787 5.026 2.787 3.289 0 4.582-1.767 4.582-3.82 0-1.953-1.02-3.045-4.036-3.677ZM116.446 51.555h-3.073V33.848h3.073v9.78c.445-2.614 1.68-4.108 4.021-4.108 1.838 0 3.547 1.25 3.547 3.706v8.329h-3.073v-7.18c0-.546-.172-1.035-.474-1.537-.301-.503-.804-.733-1.493-.733-1.896 0-2.528 1.91-2.528 2.83v6.62Z" fill="#fff"/><path fill-rule="evenodd" clip-rule="evenodd" d="m90.223 43.183 2.815 1.034c.244-.862.517-1.465.833-1.795.33-.374.933-.56 1.81-.56.732 0 1.249.143 1.565.445.316.301.473.761.473 1.393v.502c-1.091.403-2.096.69-3.03.877-.933.186-1.737.402-2.412.631-.675.23-1.207.575-1.594 1.006-.388.43-.575 1.091-.575 1.967 0 .977.316 1.738.934 2.298.617.56 1.45.833 2.47.833.43 0 .876-.072 1.35-.201.008-.008.02-.012.035-.016a3.766 3.766 0 0 0 1.832-1.234l.99-1.206v.546l-.014 1.867h3.088v-8.387c0-1.307-.388-2.24-1.164-2.815-.775-.56-2.053-.847-3.834-.847-.675 0-1.321.072-1.939.215a5.455 5.455 0 0 0-1.651.66 4.54 4.54 0 0 0-1.25 1.15 4.268 4.268 0 0 0-.732 1.637Zm3.648 5.988c-.273-.273-.402-.617-.402-1.062 0-.675.287-1.221.861-1.638.436-.304 1.193-.527 2.266-.841.342-.101.717-.211 1.123-.336v1.896A3.515 3.515 0 0 1 96.513 49c-.244.186-.517.33-.79.43-.273.1-.517.144-.718.144-.488 0-.861-.13-1.134-.403Z" fill="#fff"/></svg>
